X:1
T:Fyrestev
T:Fyrestev
T:Symra
T:Chr. Haslerud
T:Ivar Aasen
C:Chr. Haslerud
Z:Ivar Aasen
%%score [ 1 2 3 4 ]
L:1/8
Q:1/4=50
M:4/4
K:Eb
V:1 treble nm="Soprano"
V:2 treble nm="Alto"
V:3 treble-8 nm="Tenor"
V:4 bass nm="Bass"
V:1
!p!"^Langsomt" C2 | G3 A G2 F2 |!<(! E2 F2!<)! G2 z G | c3 d e2 g f | e4 d2 z _B | %5
w: So|ym- se Folk eg|ken- ner til, som|ha- va Hug til aa|kve- da; og|
!f! e2 d2 c2 d3/2 c/ |!>(! B2 A2 G2!>)! z!p! =B | c2 G3/2 F/"^rall." E2 E2 | D4 C2 |] %9
w: faa dei no- kot, som|hö- va vil, so|ha- va dei rett sin|Gle- da.|
V:2
!p! C2 | E3 F E2 D2 |!<(! C2 C2!<)! D2 z D | G3 F E2 D G | G4 G2 z F |!f! E2 E2 E2 F3/2 D/ | %6
w: So|ym- se Folk eg|ken- ner til, som|ha- va Hug til aa|kve- da; og|faa dei no- kot, som|
!>(! E2 E2 E2!>)! z!p! D | C2 C3/2 =B,/"^rall." C2 C2 | =B,4 G,2 |] %9
w: hö- va vil, so|ha- va dei rett sin|Gle- da.|
V:3
!p! c2 | c3 c c2 A2 |!<(! G2 c2!<)! =B2 z B | G3 =B c2 d d | c4 =B2 z d |!f! _B2 B2 A2 A3/2 A/ | %6
w: So|ym- se Folk eg|ken- ner til, som|ha- va Hug til aa|kve- da; og|faa dei no- kot, som|
!>(! B2 B2 B2!>)! z!p! G | G2 G3/2 G/"^rall." G2 G2 | F4 E2 |] %9
w: hö- va vil, so|ha- va dei rett sin|Gle- da.|
V:4
!p! C2 | C,3 C, C,2 F,2 |!<(! G,2 A,2!<)! G,2 z F, | E,3 D, C,2 =B,, B,, | (C,2 E,2) G,2 z A, | %5
w: So|ym- se Folk eg|ken- ner til, som|ha- va Hug til aa|kve- * da; og|
!f! G,2 G,2 A,2 F,3/2 F,/ |!>(! G,2 B,2 E,2!>)! z!p! F, | E,2 E,3/2 D,/"^rall." C,2 (E,C,) | %8
w: faa dei no- kot, som|hö- va vil, so|ha- va dei rett sin _|
 G,,4 C,2 |] %9
w: Gle- da.|

